Yosa-Max-Dark/places/16x16/user-trash-symbolic.svg

<?xml version="1.0" encoding="UTF-8"?>
<svg id="svg6" version="1.1" viewBox="0 0 16 16" xmlns="http://www.w3.org/2000/svg">
 <defs id="defs3051">
  <style id="current-color-scheme" type="text/css">.ColorScheme-Text {
        color:#dfdfdf;
      }
      .ColorScheme-NegativeText {
        color:#da4453;
      }</style>
  <style id="current-color-scheme-3" type="text/css">.ColorScheme-Text {
        color:#dfdfdf;
      }
      .ColorScheme-NegativeText {
        color:#da4453;
      }</style>
  <style id="current-color-scheme-6" type="text/css">.ColorScheme-Text {
        color:#dfdfdf;
      }</style>
 </defs>/&gt;
 <path id="path2-3" d="m1.0727499 5.5168902 0.8763735 0.7125736-0.824836 1.6443434c-0.41240493 0.7582311 0.2960824 1.4968534 0.7474948 1.7539804 0.4443862 0.253104 1.1341135 0.283195 1.7785071 0.274077l1.159891-1.9732386 0.8763648 0.4933073-1.5207584-2.9324219-3.0930368 0.0273875zm0.1288612 4.0252264 1.8815996 3.6175744c0.3780437 0.502425 1.0911772 0.621189 1.8300708 0.602927h1.9847008v-3.42572l-3.7632079-0.027388c-0.5842198 0.036488-1.3489172-0.091393-1.9331633-0.7673844zm11.838145-6.6667725-1.023741 0.4521911-0.982135-1.5479009c-0.43729-0.7429535-1.4015928-0.4562074-1.8365114-0.169995-0.4281462 0.2817675-0.7878411 0.8949586-1.0925685 1.4858897l1.0960685 2.0123513-0.8394748 0.5584861 3.2018432 0.0375375 1.476519-2.8285336zm-3.4454875-1.8341396-3.9526284-0.0412125c-0.6055348 0.100485-1.0510847 0.6919673-1.3939534 1.3733822l-0.9622023 1.8064283 2.8791693 1.6608377 1.8474751-3.4119223c0.252525-0.5495086 0.7307386-1.1834809 1.5821397-1.3874959zm0.1719377 13.958768 0.1162525-1.151036 1.7771073-0.14343c0.836404-0.03789 1.062924-1.054523 1.033226-1.589148-0.02923-0.526304-0.370221-1.150966-0.719145-1.714807l-2.222657 0.02205-0.062475-1.0348374-1.5838118 2.8960494 1.6614505 2.715194zm3.2119238-2.246763 1.950908-3.5775604c0.209134-0.5998825-0.071925-1.2921824-0.47845-1.9346072l-1.051732-1.7515573-2.791696 1.8153622 1.971873 3.3356667c0.339413 0.49623 0.640386 1.238833 0.399097 2.112696z" style="fill:#dfdfdf"/>
</svg>

<?xml version="1.0" encoding="UTF-8" standalone="no"?>
<svg
   xmlns:dc="http://purl.org/dc/elements/1.1/"
   xmlns:cc="http://creativecommons.org/ns#"
   xmlns:rdf="http://www.w3.org/1999/02/22-rdf-syntax-ns#"
   xmlns:svg="http://www.w3.org/2000/svg"
   xmlns="http://www.w3.org/2000/svg"
   id="svg6"
   version="1.1"
   viewBox="0 0 16 16"><metadata
   id="metadata10">
  <rdf:RDF>
    <cc:Work
       rdf:about="">
      <dc:format>image/svg+xml</dc:format>
      <dc:type
         rdf:resource="http://purl.org/dc/dcmitype/StillImage" />
      <dc:title></dc:title>
    </cc:Work>
  </rdf:RDF>
</metadata>
<defs
   id="defs3051">
  <style
     id="current-color-scheme"
     type="text/css">
      .ColorScheme-Text {
        color:#dfdfdf;
      }
      .ColorScheme-NegativeText {
        color:#da4453;
      }
      </style>
  <style
     type="text/css"
     id="current-color-scheme-3">
      .ColorScheme-Text {
        color:#dfdfdf;
      }
      .ColorScheme-NegativeText {
        color:#da4453;
      }
      </style>
  <style
     id="current-color-scheme-6"
     type="text/css">
      .ColorScheme-Text {
        color:#dfdfdf;
      }
      </style>
</defs>



  /&gt;
<path
   id="path2-3"
   d="m 1.0727499,5.5168902 0.8763735,0.7125736 -0.824836,1.6443434 c -0.41240493,0.7582311 0.2960824,1.4968534 0.7474948,1.7539804 0.4443862,0.253104 1.1341135,0.283195 1.7785071,0.274077 L 4.8101803,7.928626 5.6865451,8.4219333 4.1657867,5.4895114 1.0727499,5.5168989 Z m 0.1288612,4.0252264 1.8815996,3.6175744 c 0.3780437,0.502425 1.0911772,0.621189 1.8300708,0.602927 h 1.9847008 v -3.42572 L 3.1347744,10.30951 C 2.5505546,10.345998 1.7858572,10.218117 1.2016111,9.5421256 Z M 13.039756,2.8753441 12.016015,3.3275352 11.03388,1.7796343 C 10.59659,1.0366808 9.6322872,1.3234269 9.1973686,1.6096393 8.7692224,1.8914068 8.4095275,2.5045979 8.1048001,3.095529 L 9.2008686,5.1078803 8.3613938,5.6663664 11.563237,5.7039039 13.039756,2.8753703 Z M 9.5942685,1.0412045 5.6416401,0.999992 C 5.0361053,1.100477 4.5905554,1.6919593 4.2476867,2.3733742 L 3.2854844,4.1798025 6.1646537,5.8406402 8.0121288,2.4287179 C 8.2646538,1.8792093 8.7428674,1.245237 9.5942685,1.041222 Z m 0.1719377,13.9587685 0.1162525,-1.151036 1.7771073,-0.14343 c 0.836404,-0.03789 1.062924,-1.054523 1.033226,-1.589148 -0.02923,-0.526304 -0.370221,-1.150966 -0.719145,-1.714807 L 9.75099,10.423602 9.688515,9.3887646 8.1047032,12.284814 9.7661537,15.000008 Z M 12.97813,12.75321 14.929038,9.1756496 C 15.138172,8.5757671 14.857113,7.8834672 14.450588,7.2410424 L 13.398856,5.4894851 10.60716,7.3048473 12.579033,10.640514 c 0.339413,0.49623 0.640386,1.238833 0.399097,2.112696 z"
   style="fill:#dfdfdf;fill-opacity:1;stroke-width:1" />
</svg>
